X:277
T:Reel 277
M:4/4
K:Gmaj
L:1/8
G2DG FDDC|B,DGB AcBc|BdAG ADDc|BGAF GFED|G2DB, G,B,DB,|CB,A,B, CDEF|GFGf egdc|BcAF G2|Bc|dggf g2fg|agdf gfdB|cBcd efge|dcBA GBdG|dgfg g2gg|faaf gfdB|c2cA BGAF|GEFG GcBA|
